X:1
T:The Twisting of the Rope (Casadh an tSugain)
T:Twisting the Hayrope
M:C
L:1/8
R:Slow Reel
O:Ireland
K:G
GA| |: "G"{A}B2GE D3E| G2AB "C"c3A| "Em"BA GD "C"{D}E4-| E6- DE/F/|
"G"G A/G/FG "Am"{G}A A(3BAG GA| "G"{A}B2{=cB}GE D3E|
 "Am"G2 (3AGF "G"G4-| G4-G2:||:
{A}Bd| "Em"{d}e3d "G"dg3-| g3- d "Em"e(3fed B| "C"c3A "G"{B=c}BAGD|
"Am"E4-E2 D E/2F/2|
"G"G A/2G/2 FG "Am"AB/A/GA| "Em"ABGE "D"D3E|
"Am"G2 (3AGF "G"G4-| G4-G2:|
